**harm	**harte	**kern	**silbe	**kern	**silbe	**rhyme	**timestamp	**phrase	**leadinstrument
*M4/4	*M4/4	*ICvox	*	*ICvox	*	*	*	*	*
*	*	*VRlead	*	*VRharmonize	*	*	*	*	*
*	*	*Hstimme	*	*Nstimme	*	*	*	*	*
*C:	*C:	*C:	*	*C:	*	*	*	*	*
*	*	*M4/4	*	*M4/4	*	*	*	*	*
*	*	*clefF4	*	*clefF4	*	*	*	*	*
1r;	N	r;	.	r;	.	.	0	.	r
=1	=1	=1	=1	=1	=1	=1	=1	=1	=1
*>Letter>A	*>Letter>A	*>Letter>A	*>Letter>A	*>Letter>A	*>Letter>A	*>Letter>A	*>Letter>A	*>Letter>A	*>Letter>A
*>Label>Intro	*>Label>Intro	*>Label>Intro	*>Label>Intro	*>Label>Intro	*>Label>Intro	*>Label>Intro	*>Label>Intro	*>Label>Intro	*>Label>Intro
1r	N	1r	.	1r	.	.	0.395	newline	drums
=2	=2	=2	=2	=2	=2	=2	=2	=2	=2
1r	N	1r	.	2r	.	.	2.506	.	drums
.	.	.	.	4r	.	.	.	.	.
.	.	.	.	4BB	A-	.	.	.	.
=3	=3	=3	=3	=3	=3	=3	=3	=3	=3
1r	N	1r	.	8C	-ru-	.	4.617	newline	voice
.	.	.	.	8C	-ba,	a	.	.	.
.	.	.	.	8r	.	.	.	.	.
.	.	.	.	8BB	Ja-	.	.	.	.
.	.	.	.	8C	-mai-	(A	.	.	.
.	.	.	.	8C	-ca,	a)	.	.	.
.	.	.	.	8r	.	.	.	.	.
.	.	.	.	8C	ooh	.	.	.	.
=4	=4	=4	=4	=4	=4	=4	=4	=4	=4
1r	N	1r	.	8D	_	.	6.69	.	voice
.	.	.	.	8C	I	.	.	.	.
.	.	.	.	8C	want	.	.	.	.
.	.	.	.	8BB	to	.	.	.	.
.	.	.	.	8C	take	(A	.	.	.
.	.	.	.	8C	ya	a)	.	.	.
.	.	.	.	8r	.	.	.	.	.
.	.	.	.	8E	Ber-	.	.	.	.
=5	=5	=5	=5	=5	=5	=5	=5	=5	=5
1r	N	1r	.	8F	-mu-	.	8.762	newline	voice
.	.	.	.	8F	-da,	a	.	.	.
.	.	.	.	8r	.	.	.	.	.
.	.	.	.	8E	Ba-	.	.	.	.
.	.	.	.	8F	-ha-	(B	.	.	.
.	.	.	.	8F	-ma,	b)	.	.	.
.	.	.	.	8r	.	.	.	.	.
.	.	.	.	8F	come	.	.	.	.
=6	=6	=6	=6	=6	=6	=6	=6	=6	=6
1r	N	1r	.	8G	_	.	10.822	.	voice
.	.	.	.	8F	on	.	.	.	.
.	.	.	.	8F	pret-	.	.	.	.
.	.	.	.	8E	-ty	.	.	.	.
.	.	.	.	8F	ma-	(B	.	.	.
.	.	.	.	8F	-ma	b)	.	.	.
.	.	.	.	8r	.	.	.	.	.
.	.	.	.	8BB	Key	.	.	.	.
=7	=7	=7	=7	=7	=7	=7	=7	=7	=7
1r	N	1r	.	8C	Lar-	.	12.882	newline	voice
.	.	.	.	8C	-go,	c	.	.	.
.	.	.	.	8r	.	.	.	.	.
.	.	.	.	8BB	Mon-	.	.	.	.
.	.	.	.	8C	-te-	(C	.	.	.
.	.	.	.	8C	-go,	c)	.	.	.
.	.	.	.	8r	.	.	.	.	.
.	.	.	.	8C	ba-	.	.	.	.
=8	=8	=8	=8	=8	=8	=8	=8	=8	=8
1r	N	1r	.	8D	_	.	14.957	.	voice
.	.	.	.	8C	-by	.	.	.	.
.	.	.	.	8C	why	.	.	.	.
.	.	.	.	8BB	don't	.	.	.	.
.	.	.	.	8C	we	(C	.	.	.
.	.	.	.	8C	go,	c)	.	.	.
.	.	.	.	8r	.	.	.	.	.
.	.	.	.	8E	Ja-	.	.	.	.
=9	=9	=9	=9	=9	=9	=9	=9	=9	=9
1r	N	4r	.	8F	-mai-	.	17.032	.	voice
.	.	.	.	8F	-ca	.	.	.	.
.	.	8G	Off	4r	.	.	.	.	.
.	.	8G	the	.	.	.	.	.	.
.	.	8G	Flo-	2r	.	.	.	.	.
.	.	8A	-ri-	.	.	.	.	.	.
.	.	8B	-da	.	.	.	.	.	.
.	.	[8G	Keys	.	.	.	.	.	.
=10	=10	=10	=10	=10	=10	=10	=10	=10	=10
*>Letter>B	*>Letter>B	*>Letter>B	*>Letter>B	*>Letter>B	*>Letter>B	*>Letter>B	*>Letter>B	*>Letter>B	*>Letter>B
*>Label>Verse	*>Label>Verse	*>Label>Verse	*>Label>Verse	*>Label>Verse	*>Label>Verse	*>Label>Verse	*>Label>Verse	*>Label>Verse	*>Label>Verse
1I	C:maj	2.G_	_	1r	.	.	19.107	newline	voice
.	.	8G]	_	.	.	.	.	.	.
.	.	8F	_	.	.	.	.	.	.
=11	=11	=11	=11	=11	=11	=11	=11	=11	=11
1I7	C:maj7	2E	_	1r	.	.	21.187	.	voice
.	.	2r	.	.	.	.	.	.	.
=12	=12	=12	=12	=12	=12	=12	=12	=12	=12
1v7	G:min7	4r	.	1r	.	.	23.266	.	voice
.	.	8F	there's	.	.	.	.	.	.
.	.	8F	a	.	.	.	.	.	.
.	.	4G	place	.	.	.	.	.	.
.	.	4A	called	.	.	.	.	.	.
=13	=13	=13	=13	=13	=13	=13	=13	=13	=13
1IV	F:maj	8G	Kok-	1r	.	(D	25.346	.	voice
.	.	4F	-o-	.	.	d	.	.	.
.	.	[8C	-mo	.	.	D)	.	.	.
.	.	2C]	_	.	.	.	.	.	.
=14	=14	=14	=14	=14	=14	=14	=14	=14	=14
1iv	F:min	4r	.	1r	.	.	27.426	newline	voice
.	.	4F	That's	.	.	.	.	.	.
.	.	4.G	where	.	.	.	.	.	.
.	.	8F	you	.	.	.	.	.	.
=15	=15	=15	=15	=15	=15	=15	=15	=15	=15
1I	C:maj	8F	want	1r	.	.	29.505	.	voice
.	.	4E	to	.	.	.	.	.	.
.	.	8E	go	.	.	D	.	.	.
.	.	8r	.	.	.	.	.	.	.
.	.	8E	to	.	.	.	.	.	.
.	.	8F	get	.	.	.	.	.	.
.	.	8G	a-	.	.	.	.	.	.
=16	=16	=16	=16	=16	=16	=16	=16	=16	=16
1II7	D:7	8A	-way	1r	.	.	31.584	.	voice
.	.	8D	from	.	.	.	.	.	.
.	.	8D	it	.	.	.	.	.	.
.	.	[8D	all	.	.	.	.	.	.
.	.	4D]	_	.	.	.	.	.	.
.	.	4r	.	.	.	.	.	.	.
=17	=17	=17	=17	=17	=17	=17	=17	=17	=17
1V7	G:7	1r	.	1r	.	.	33.663	.	voice
=18	=18	=18	=18	=18	=18	=18	=18	=18	=18
1I	C:maj	4r	.	1r	.	.	35.743	newline	voice
.	.	8G	Bo-	.	.	.	.	.	.
.	.	8G	-dies	.	.	.	.	.	.
.	.	8A	in	.	.	.	.	.	.
.	.	4B	the	.	.	.	.	.	.
.	.	[8G	sand,	.	.	E	.	.	.
=19	=19	=19	=19	=19	=19	=19	=19	=19	=19
1I7	C:maj7	2.G]	_	1r	.	.	37.805	.	voice
.	.	4r	.	.	.	.	.	.	.
=20	=20	=20	=20	=20	=20	=20	=20	=20	=20
1v7	G:min7	8r	.	1r	.	.	39.868	.	voice
.	.	8E	tro-	.	.	.	.	.	.
.	.	8E	-pi-	.	.	.	.	.	.
.	.	8F	-cal	.	.	.	.	.	.
.	.	4G	drink	.	.	.	.	.	.
.	.	8G	mel-	.	.	.	.	.	.
.	.	8A	-ting	.	.	.	.	.	.
=21	=21	=21	=21	=21	=21	=21	=21	=21	=21
1IV	F:maj	8G	in	1r	.	.	41.931	.	voice
.	.	4F	your	.	.	.	.	.	.
.	.	[8C	hand	.	.	E	.	.	.
.	.	4C]	_	.	.	.	.	.	.
.	.	4r	.	.	.	.	.	.	.
=22	=22	=22	=22	=22	=22	=22	=22	=22	=22
1iv	F:min	4r	.	1r	.	.	43.994	newline	voice
.	.	8F	We'll	.	.	.	.	.	.
.	.	8F	be	.	.	.	.	.	.
.	.	8F	fal-	.	.	.	.	.	.
.	.	8G	-ling	.	.	.	.	.	.
.	.	8F	in	.	.	.	.	.	.
.	.	[8E	love	.	.	.	.	.	.
=23	=23	=23	=23	=23	=23	=23	=23	=23	=23
1I	C:maj	8E]	_	1r	.	.	46.063	.	voice
.	.	8r	.	.	.	.	.	.	.
.	.	8E	to	.	.	.	.	.	.
.	.	8E	the	.	.	.	.	.	.
.	.	8E	rhy-	.	.	.	.	.	.
.	.	8E	-thm	.	.	.	.	.	.
.	.	8F	of	.	.	.	.	.	.
.	.	8G	a	.	.	.	.	.	.
=24	=24	=24	=24	=24	=24	=24	=24	=24	=24
1II7	D:7	8A	steel	1r	.	.	48.133	.	voice
.	.	4D	drum	.	.	.	.	.	.
.	.	[8D	band	.	.	E	.	.	.
.	.	4D]	_	.	.	.	.	.	.
.	.	4r	.	.	.	.	.	.	.
=25	=25	=25	=25	=25	=25	=25	=25	=25	=25
1V7	G:7	4r	.	2r	.	.	50.203	.	voice
.	.	8F	Down	.	.	.	.	.	.
.	.	8E	in	.	.	.	.	.	.
.	.	8F	Ko	4r	.	(D	.	.	.
.	.	8E	_	.	.	.	.	.	.
.	.	8C	ko-	8r	.	d	.	.	.
.	.	[8C	-mo	8BB	A-	D)	.	.	.
=26	=26	=26	=26	=26	=26	=26	=26	=26	=26
*>Letter>C	*>Letter>C	*>Letter>C	*>Letter>C	*>Letter>C	*>Letter>C	*>Letter>C	*>Letter>C	*>Letter>C	*>Letter>C
*>Label>Chorus	*>Label>Chorus	*>Label>Chorus	*>Label>Chorus	*>Label>Chorus	*>Label>Chorus	*>Label>Chorus	*>Label>Chorus	*>Label>Chorus	*>Label>Chorus
1I	C:maj	2C]	_	8C	-ru-	.	52.273	newline	voice
.	.	.	.	8C	-ba,	a	.	.	.
.	.	.	.	8r	.	.	.	.	.
.	.	.	.	8BB	Ja-	.	.	.	.
.	.	2r	.	8C	-mai-	(A	.	.	.
.	.	.	.	8C	-ca,	a)	.	.	.
.	.	.	.	8r	.	.	.	.	.
.	.	.	.	8C	ooh	.	.	.	.
=27	=27	=27	=27	=27	=27	=27	=27	=27	=27
1I	C:maj	1r	.	8D	_	.	54.347	.	voice
.	.	.	.	8C	I	.	.	.	.
.	.	.	.	8C	want	.	.	.	.
.	.	.	.	8BB	to	.	.	.	.
.	.	.	.	8C	take	(A	.	.	.
.	.	.	.	8C	ya	a)	.	.	.
.	.	.	.	8r	.	.	.	.	.
.	.	.	.	8E	Ber-	.	.	.	.
=28	=28	=28	=28	=28	=28	=28	=28	=28	=28
1IV	F:maj	1r	.	8F	-mu-	.	56.421	.	voice
.	.	.	.	8F	-da,	a	.	.	.
.	.	.	.	8r	.	.	.	.	.
.	.	.	.	8E	Ba-	.	.	.	.
.	.	.	.	8F	-ha-	(B	.	.	.
.	.	.	.	8F	-ma,	b)	.	.	.
.	.	.	.	8r	.	.	.	.	.
.	.	.	.	8F	come	.	.	.	.
=29	=29	=29	=29	=29	=29	=29	=29	=29	=29
1IV	F:maj	1r	.	8G	_	.	58.496	.	voice
.	.	.	.	8F	on	.	.	.	.
.	.	.	.	8F	pret-	.	.	.	.
.	.	.	.	8E	-ty	.	.	.	.
.	.	.	.	8F	ma-	(B	.	.	.
.	.	.	.	8F	-ma	b)	.	.	.
.	.	.	.	8r	.	.	.	.	.
.	.	.	.	8BB	Key	.	.	.	.
=30	=30	=30	=30	=30	=30	=30	=30	=30	=30
1I	C:maj	2r	.	8C	Lar-	.	60.57	newline	voice
.	.	.	.	8C	-go,	c	.	.	.
.	.	.	.	8r	.	.	.	.	.
.	.	.	.	8BB	Mon-	.	.	.	.
.	.	4r	.	8C	-te-	(C	.	.	.
.	.	.	.	8C	-go,	c)	.	.	.
.	.	[4g	Ooh	8r	.	.	.	.	.
.	.	.	.	8C	ba-	.	.	.	.
=31	=31	=31	=31	=31	=31	=31	=31	=31	=31
1I	C:maj	8g]	_	8D	_	.	62.641	.	voice
.	.	8g	I	8C	-by	.	.	.	.
.	.	8f#	want	8C	why	.	.	.	.
.	.	8g	to	8BB	don't	.	.	.	.
.	.	8f#	take	8C	we	(C	.	.	.
.	.	8g	you	8C	go,	c)	.	.	.
.	.	8f#	down	4r	.	.	.	.	.
.	.	8g	to	.	.	.	.	.	.
=32	=32	=32	=32	=32	=32	=32	=32	=32	=32
1IV	F:maj	8f	Ko-	1r	.	(C	64.712	.	voice
.	.	8e	-ko	.	.	c	.	.	.
.	.	8c	_	.	.	C)	.	.	.
.	.	[8c	mo	.	.	.	.	.	.
.	.	8c]	_	.	.	.	.	.	.
.	.	8r	.	.	.	.	.	.	.
.	.	8r	.	.	.	.	.	.	.
.	.	8e	we'll	.	.	.	.	.	.
=33	=33	=33	=33	=33	=33	=33	=33	=33	=33
1iv	F:min	8f	get	1r	.	.	66.782	.	voice
.	.	4e	there	.	.	.	.	.	.
.	.	[8d	fast	.	.	.	.	.	.
.	.	8d]	_	.	.	.	.	.	.
.	.	8c	and	.	.	.	.	.	.
.	.	8d	then	.	.	.	.	.	.
.	.	8c	we'll	.	.	.	.	.	.
=34	=34	=34	=34	=34	=34	=34	=34	=34	=34
1I	C:maj	8d	take	1r	.	.	68.853	newline	voice
.	.	4e	it	.	.	.	.	.	.
.	.	[8e	slow	.	.	C	.	.	.
.	.	4e]	_	.	.	.	.	.	.
.	.	4r	.	.	.	.	.	.	.
=35	=35	=35	=35	=35	=35	=35	=35	=35	=35
1vi	A:min	4.a	That's	1r	.	.	70.932	.	voice
.	.	[8g	where	.	.	.	.	.	.
.	.	4g]	_	.	.	.	.	.	.
.	.	8d	we	.	.	.	.	.	.
.	.	8e	_	.	.	.	.	.	.
=36	=36	=36	=36	=36	=36	=36	=36	=36	=36
1ii	D:min	8d	want	1r	.	.	73.012	.	voice
.	.	8c	_	.	.	.	.	.	.
.	.	8c	to	.	.	.	.	.	.
.	.	8c	go	.	.	C	.	.	.
.	.	8G	_	.	.	.	.	.	.
.	.	8A	_	.	.	.	.	.	.
.	.	4r	.	.	.	.	.	.	.
=37	=37	=37	=37	=37	=37	=37	=37	=37	=37
1V	G:maj	8r	.	2r	.	.	75.091	.	voice
.	.	8f	way	.	.	.	.	.	.
.	.	8f	down	.	.	.	.	.	.
.	.	8e	in	.	.	.	.	.	.
.	.	8c	Ko-	4r	.	(C	.	.	.
.	.	8G	-ko	.	.	c	.	.	.
.	.	8A	_	8r	.	.	.	.	.
.	.	[8c	mo	8BB	The	C)	.	.	.
=38	=38	=38	=38	=38	=38	=38	=38	=38	=38
*>Letter>A	*>Letter>A	*>Letter>A	*>Letter>A	*>Letter>A	*>Letter>A	*>Letter>A	*>Letter>A	*>Letter>A	*>Letter>A
*>Label>Interlude	*>Label>Interlude	*>Label>Interlude	*>Label>Interlude	*>Label>Interlude	*>Label>Interlude	*>Label>Interlude	*>Label>Interlude	*>Label>Interlude	*>Label>Interlude
1I	C:maj	2c]	_	4C	Mar-	.	77.171	newline	voice
.	.	.	.	8r	.	.	.	.	.
.	.	.	.	8BB	-ti-	.	.	.	.
.	.	2r	.	4C	-nique,	F	.	.	.
.	.	.	.	8r	.	.	.	.	.
.	.	.	.	8BB	that	.	.	.	.
=39	=39	=39	=39	=39	=39	=39	=39	=39	=39
1r	N	1r	.	8C	Mont-	.	79.243	.	voice
.	.	.	.	8BB	-ser-	.	.	.	.
.	.	.	.	8C	-rat	.	.	.	.
.	.	.	.	8BB	my-	.	.	.	.
.	.	.	.	4C	-stique	F	.	.	.
.	.	.	.	4r	.	.	.	.	.
=40	=40	=40	=40	=40	=40	=40	=40	=40	=40
*>Letter>B	*>Letter>B	*>Letter>B	*>Letter>B	*>Letter>B	*>Letter>B	*>Letter>B	*>Letter>B	*>Letter>B	*>Letter>B
*>Label>Verse	*>Label>Verse	*>Label>Verse	*>Label>Verse	*>Label>Verse	*>Label>Verse	*>Label>Verse	*>Label>Verse	*>Label>Verse	*>Label>Verse
1I	C:maj	4r	.	1r	.	.	81.314	newline	voice
.	.	8G	We'll	.	.	.	.	.	.
.	.	8G	put	.	.	.	.	.	.
.	.	8A	out	.	.	.	.	.	.
.	.	4B	to	.	.	.	.	.	.
.	.	[8G	sea	.	.	F	.	.	.
=41	=41	=41	=41	=41	=41	=41	=41	=41	=41
1I7	C:maj7	2.G]	_	1r	.	.	83.395	.	voice
.	.	8F	_	.	.	.	.	.	.
.	.	8E	_	.	.	.	.	.	.
=42	=42	=42	=42	=42	=42	=42	=42	=42	=42
1v7	G:min7	8r	.	1r	.	.	85.476	.	voice
.	.	8F	and	.	.	.	.	.	.
.	.	8F	we'll	.	.	.	.	.	.
.	.	8F	per-	.	.	.	.	.	.
.	.	4G	-fect	.	.	.	.	.	.
.	.	4A	our	.	.	.	.	.	.
=43	=43	=43	=43	=43	=43	=43	=43	=43	=43
1IV	F:maj	8G	che-	1r	.	.	87.556	.	voice
.	.	4F	-mis-	.	.	.	.	.	.
.	.	[8C	-try	.	.	F	.	.	.
.	.	2C]	_	.	.	.	.	.	.
=44	=44	=44	=44	=44	=44	=44	=44	=44	=44
1iv	F:min	4r	.	1r	.	.	89.637	newline	voice
.	.	8F	by	.	.	.	.	.	.
.	.	8F	and	.	.	.	.	.	.
.	.	8F	by	.	.	.	.	.	.
.	.	8G	we'll	.	.	.	.	.	.
.	.	8F	de-	.	.	.	.	.	.
.	.	[8E	-fy	.	.	.	.	.	.
=45	=45	=45	=45	=45	=45	=45	=45	=45	=45
1I	C:maj	4E]	_	1r	.	.	91.698	.	voice
.	.	8r	.	.	.	.	.	.	.
.	.	8E	a	.	.	.	.	.	.
.	.	8E	lit-	.	.	.	.	.	.
.	.	8E	-tle	.	.	.	.	.	.
.	.	8F	bit	.	.	.	.	.	.
.	.	8G	of	.	.	.	.	.	.
=46	=46	=46	=46	=46	=46	=46	=46	=46	=46
1II7	D:7	8A	gra-	1r	.	.	93.76	.	voice
.	.	8D	-vi-	.	.	.	.	.	.
.	.	[4D	-ty	.	.	F	.	.	.
.	.	4D]	_	.	.	.	.	.	.
.	.	4r	.	.	.	.	.	.	.
=47	=47	=47	=47	=47	=47	=47	=47	=47	=47
1V7	G:7	1r	.	1r	.	.	95.821	.	voice
=48	=48	=48	=48	=48	=48	=48	=48	=48	=48
1I	C:maj	4r	.	1r	.	.	97.882	newline	voice
.	.	8G	Af-	.	.	.	.	.	.
.	.	8G	-ter-	.	.	.	.	.	.
.	.	8A	-noon	.	.	.	.	.	.
.	.	4B	de-	.	.	.	.	.	.
.	.	[8G	light	.	.	G	.	.	.
=49	=49	=49	=49	=49	=49	=49	=49	=49	=49
1I7	C:maj7	2.G]	_	1r	.	.	99.958	.	voice
.	.	4r	.	.	.	.	.	.	.
=50	=50	=50	=50	=50	=50	=50	=50	=50	=50
1v7	G:min7	4r	.	1r	.	.	102.034	.	voice
.	.	4G	cock-	.	.	.	.	.	.
.	.	4.A	-tails	.	.	.	.	.	.
.	.	8G	and	.	.	.	.	.	.
=51	=51	=51	=51	=51	=51	=51	=51	=51	=51
1IV	F:maj	8G	moon-	1r	.	.	104.11	.	voice
.	.	4F	-lit	.	.	.	.	.	.
.	.	[8C	nights	.	.	G	.	.	.
.	.	4C]	_	.	.	.	.	.	.
.	.	4r	.	.	.	.	.	.	.
=52	=52	=52	=52	=52	=52	=52	=52	=52	=52
1iv	F:min	8r	.	1r	.	.	106.186	newline	voice
.	.	8F	That	.	.	.	.	.	.
.	.	8F	drea-	.	.	.	.	.	.
.	.	8F	-my	.	.	.	.	.	.
.	.	8F	look	.	.	.	.	.	.
.	.	8G	in	.	.	.	.	.	.
.	.	8F	your	.	.	.	.	.	.
.	.	8E	eye	.	.	G	.	.	.
=53	=53	=53	=53	=53	=53	=53	=53	=53	=53
1I	C:maj	8r	.	1r	.	.	108.254	.	voice
.	.	8E	give	.	.	.	.	.	.
.	.	8E	me	.	.	.	.	.	.
.	.	8E	a	.	.	.	.	.	.
.	.	6E	tro-	.	.	.	.	.	.
.	.	6F	-pi-	.	.	.	.	.	.
.	.	6G	-cal	.	.	.	.	.	.
=54	=54	=54	=54	=54	=54	=54	=54	=54	=54
1II7	D:7	4A	con-	1r	.	.	110.322	.	voice
.	.	4D	-tact	.	.	.	.	.	.
.	.	2D	high	.	.	G	.	.	.
=55	=55	=55	=55	=55	=55	=55	=55	=55	=55
1V7	G:7	8r	.	2r	.	.	112.389	.	voice
.	.	8F	Way	.	.	.	.	.	.
.	.	8F	down	.	.	.	.	.	.
.	.	8E	in	.	.	.	.	.	.
.	.	8F	Ko	4r	.	(C	.	.	.
.	.	8E	_	.	.	.	.	.	.
.	.	8C	ko-	8r	.	c	.	.	.
.	.	[8C	-mo	8BB	A-	C)	.	.	.
=56	=56	=56	=56	=56	=56	=56	=56	=56	=56
*>Letter>C	*>Letter>C	*>Letter>C	*>Letter>C	*>Letter>C	*>Letter>C	*>Letter>C	*>Letter>C	*>Letter>C	*>Letter>C
*>Label>Chorus	*>Label>Chorus	*>Label>Chorus	*>Label>Chorus	*>Label>Chorus	*>Label>Chorus	*>Label>Chorus	*>Label>Chorus	*>Label>Chorus	*>Label>Chorus
1I	C:maj	2C]	_	8C	-ru-	.	114.457	newline	voice
.	.	.	.	8C	-ba,	a	.	.	.
.	.	.	.	8r	.	.	.	.	.
.	.	.	.	8BB	Ja-	.	.	.	.
.	.	2r	.	8C	-mai-	(A	.	.	.
.	.	.	.	8C	-ca,	a)	.	.	.
.	.	.	.	8r	.	.	.	.	.
.	.	.	.	8C	ooh	.	.	.	.
=57	=57	=57	=57	=57	=57	=57	=57	=57	=57
1I	C:maj	1r	.	8D	_	.	116.526	.	voice
.	.	.	.	8C	I	.	.	.	.
.	.	.	.	8C	want	.	.	.	.
.	.	.	.	8BB	to	.	.	.	.
.	.	.	.	8C	take	(A	.	.	.
.	.	.	.	8C	ya	a)	.	.	.
.	.	.	.	8r	.	.	.	.	.
.	.	.	.	8E	Ber-	.	.	.	.
=58	=58	=58	=58	=58	=58	=58	=58	=58	=58
1IV	F:maj	1r	.	8F	-mu-	.	118.595	.	voice
.	.	.	.	8F	-da,	.	.	.	.
.	.	.	.	8r	.	.	.	.	.
.	.	.	.	8E	Ba-	.	.	.	.
.	.	.	.	8F	-ha-	(B	.	.	.
.	.	.	.	8F	-ma,	b)	.	.	.
.	.	.	.	8r	.	.	.	.	.
.	.	.	.	8F	come	.	.	.	.
=59	=59	=59	=59	=59	=59	=59	=59	=59	=59
1IV	F:maj	1r	.	8G	_	.	120.664	.	voice
.	.	.	.	8F	on	.	.	.	.
.	.	.	.	8F	pret-	.	.	.	.
.	.	.	.	8E	-ty	.	.	.	.
.	.	.	.	8F	ma-	(B	.	.	.
.	.	.	.	8F	-ma	b)	.	.	.
.	.	.	.	8r	.	.	.	.	.
.	.	.	.	8BB	Key	.	.	.	.
=60	=60	=60	=60	=60	=60	=60	=60	=60	=60
1I	C:maj	2r	.	8C	Lar-	.	122.733	newline	voice
.	.	.	.	8C	-go,	c	.	.	.
.	.	.	.	8r	.	.	.	.	.
.	.	.	.	8BB	Mon-	.	.	.	.
.	.	4r	.	8C	-te-	(C	.	.	.
.	.	.	.	8C	-go,	c)	.	.	.
.	.	[4g	Ooh	8r	.	.	.	.	.
.	.	.	.	8C	ba-	.	.	.	.
=61	=61	=61	=61	=61	=61	=61	=61	=61	=61
1I	C:maj	8g]	_	8D	_	.	124.817	.	voice
.	.	8g	I	8C	-by	.	.	.	.
.	.	8f#	want	8C	why	.	.	.	.
.	.	8g	to	8BB	don't	.	.	.	.
.	.	8f#	take	8C	we	.	.	.	.
.	.	8g	you	8C	go,	.	.	.	.
.	.	8f#	down	4r	.	.	.	.	.
.	.	8g	to	.	.	.	.	.	.
=62	=62	=62	=62	=62	=62	=62	=62	=62	=62
1IV	F:maj	8f	Ko-	1r	.	(C	126.9	.	voice
.	.	8e	-ko-	.	.	c	.	.	.
.	.	8c	-mo	.	.	C)	.	.	.
.	.	[8c	_	.	.	.	.	.	.
.	.	8c]	_	.	.	.	.	.	.
.	.	8r	.	.	.	.	.	.	.
.	.	8r	.	.	.	.	.	.	.
.	.	8e	we'll	.	.	.	.	.	.
=63	=63	=63	=63	=63	=63	=63	=63	=63	=63
1iv	F:min	8f	get	1r	.	.	128.984	.	voice
.	.	4e	there	.	.	.	.	.	.
.	.	[8d	fast	.	.	.	.	.	.
.	.	8d]	_	.	.	.	.	.	.
.	.	8c	and	.	.	.	.	.	.
.	.	8d	then	.	.	.	.	.	.
.	.	8c	we'll	.	.	.	.	.	.
=64	=64	=64	=64	=64	=64	=64	=64	=64	=64
1I	C:maj	8d	take	1r	.	.	131.068	newline	voice
.	.	4e	it	.	.	.	.	.	.
.	.	[8e	slow	.	.	C	.	.	.
.	.	4e]	_	.	.	.	.	.	.
.	.	4r	.	.	.	.	.	.	.
=65	=65	=65	=65	=65	=65	=65	=65	=65	=65
1vi	A:min	4.a	That's	1r	.	.	133.154	.	voice
.	.	[8g	where	.	.	.	.	.	.
.	.	4g]	_	.	.	.	.	.	.
.	.	8d	we	.	.	.	.	.	.
.	.	8e	_	.	.	.	.	.	.
=66	=66	=66	=66	=66	=66	=66	=66	=66	=66
1ii	D:min	8d	want	1r	.	.	135.24	.	voice
.	.	8c	_	.	.	.	.	.	.
.	.	8c	to	.	.	.	.	.	.
.	.	8c	go,	.	.	C	.	.	.
.	.	8G	_	.	.	.	.	.	.
.	.	8A	_	.	.	.	.	.	.
.	.	4r	.	.	.	.	.	.	.
=67	=67	=67	=67	=67	=67	=67	=67	=67	=67
1V	G:maj	8r	.	1r	.	.	137.325	.	voice
.	.	8f	way	.	.	.	.	.	.
.	.	8f	down	.	.	.	.	.	.
.	.	8e	in	.	.	.	.	.	.
.	.	8c	Ko-	.	.	(C	.	.	.
.	.	8G	-ko-	.	.	c	.	.	.
.	.	8A	-mo	.	.	C)	.	.	.
.	.	[8c	_	.	.	.	.	.	.
=68	=68	=68	=68	=68	=68	=68	=68	=68	=68
*>Letter>A	*>Letter>A	*>Letter>A	*>Letter>A	*>Letter>A	*>Letter>A	*>Letter>A	*>Letter>A	*>Letter>A	*>Letter>A
*>Label>Interlude	*>Label>Interlude	*>Label>Interlude	*>Label>Interlude	*>Label>Interlude	*>Label>Interlude	*>Label>Interlude	*>Label>Interlude	*>Label>Interlude	*>Label>Interlude
1I	C:maj	2c]	_	4C	Port	.	139.411	newline	voice
.	.	.	.	8r	.	.	.	.	.
.	.	.	.	8BB	au	.	.	.	.
.	.	2r	.	4C	Prince,	H	.	.	.
.	.	.	.	8r	.	.	.	.	.
.	.	.	.	8BB	I	.	.	.	.
=69	=69	=69	=69	=69	=69	=69	=69	=69	=69
1r	N	1r	.	8C	want	.	141.474	.	voice
.	.	.	.	8BB	to	.	.	.	.
.	.	.	.	8C	catch	.	.	.	.
.	.	.	.	8BB	a	.	.	.	.
.	.	.	.	4C	glimpse	H	.	.	.
.	.	.	.	4r	.	.	.	.	.
=70	=70	=70	=70	=70	=70	=70	=70	=70	=70
*>Letter>B	*>Letter>B	*>Letter>B	*>Letter>B	*>Letter>B	*>Letter>B	*>Letter>B	*>Letter>B	*>Letter>B	*>Letter>B
*>Label>Solo	*>Label>Solo	*>Label>Solo	*>Label>Solo	*>Label>Solo	*>Label>Solo	*>Label>Solo	*>Label>Solo	*>Label>Solo	*>Label>Solo
1I	C:maj	1r	.	1r	.	.	143.538	newline	saxophone
=71	=71	=71	=71	=71	=71	=71	=71	=71	=71
1I7	C:maj7	1r	.	1r	.	.	.	.	saxophone
=72	=72	=72	=72	=72	=72	=72	=72	=72	=72
1v7	G:min7	1r	.	1r	.	.	.	.	saxophone
=73	=73	=73	=73	=73	=73	=73	=73	=73	=73
1IV	F:maj	1r	.	1r	.	.	.	.	saxophone
=74	=74	=74	=74	=74	=74	=74	=74	=74	=74
1iv	F:min	1r	.	1r	.	.	151.81	newline	saxophone
=75	=75	=75	=75	=75	=75	=75	=75	=75	=75
1I	C:maj	1r	.	1r	.	.	.	.	saxophone
=76	=76	=76	=76	=76	=76	=76	=76	=76	=76
1II7	D:7	1r	.	1r	.	.	.	.	saxophone
=77	=77	=77	=77	=77	=77	=77	=77	=77	=77
1V7	G:7	1r	.	1r	.	.	.	.	saxophone
=78	=78	=78	=78	=78	=78	=78	=78	=78	=78
*>Letter>B	*>Letter>B	*>Letter>B	*>Letter>B	*>Letter>B	*>Letter>B	*>Letter>B	*>Letter>B	*>Letter>B	*>Letter>B
*>Label>Verse	*>Label>Verse	*>Label>Verse	*>Label>Verse	*>Label>Verse	*>Label>Verse	*>Label>Verse	*>Label>Verse	*>Label>Verse	*>Label>Verse
1I	C:maj	4r	.	1r	.	.	160.082	newline	voice
.	.	8G	Ev'-	.	.	.	.	.	.
.	.	8G	-ry	.	.	.	.	.	.
.	.	8A	bo-	.	.	.	.	.	.
.	.	4B	-dy	.	.	.	.	.	.
.	.	[8G	knows	.	.	C	.	.	.
=79	=79	=79	=79	=79	=79	=79	=79	=79	=79
1I7	C:maj7	2G_	_	1r	.	.	.	.	voice
.	.	8G]	_	.	.	.	.	.	.
.	.	8F	_	.	.	.	.	.	.
.	.	4E	_	.	.	.	.	.	.
=80	=80	=80	=80	=80	=80	=80	=80	=80	=80
1v7	G:min7	8r	.	1r	.	.	.	.	voice
.	.	8E	a	.	.	.	.	.	.
.	.	8E	lit-	.	.	.	.	.	.
.	.	8F	-tle	.	.	.	.	.	.
.	.	4G	place	.	.	.	.	.	.
.	.	4A	like	.	.	.	.	.	.
=81	=81	=81	=81	=81	=81	=81	=81	=81	=81
1IV	F:maj	8G	Ko-	1r	.	(C	.	.	voice
.	.	4F	-ko-	.	.	c	.	.	.
.	.	[8C	-mo	.	.	C)	.	.	.
.	.	2C]	_	.	.	.	.	.	.
=82	=82	=82	=82	=82	=82	=82	=82	=82	=82
1iv	F:min	4r	.	1r	.	.	168.378	newline	voice
.	.	4F	Now	.	.	.	.	.	.
.	.	4.G	if	.	.	.	.	.	.
.	.	8F	you	.	.	.	.	.	.
=83	=83	=83	=83	=83	=83	=83	=83	=83	=83
1I	C:maj	8F	want	1r	.	.	.	.	voice
.	.	4E	to	.	.	.	.	.	.
.	.	8E	go	.	.	C	.	.	.
.	.	8r	.	.	.	.	.	.	.
.	.	8E	and	.	.	.	.	.	.
.	.	8F	get	.	.	.	.	.	.
.	.	8G	a-	.	.	.	.	.	.
=84	=84	=84	=84	=84	=84	=84	=84	=84	=84
1II7	D:7	8A	-way	1r	.	.	.	.	voice
.	.	8D	from	.	.	.	.	.	.
.	.	8D	it	.	.	.	.	.	.
.	.	[8D	all	.	.	.	.	.	.
.	.	4D]	_	.	.	.	.	.	.
.	.	4r	.	.	.	.	.	.	.
=85	=85	=85	=85	=85	=85	=85	=85	=85	=85
1V7	G:7	8r	.	2r	.	.	.	.	voice
.	.	8F	Go	.	.	.	.	.	.
.	.	8F	down	.	.	.	.	.	.
.	.	8E	to	.	.	.	.	.	.
.	.	8F	Ko	4r	.	(C	.	.	.
.	.	8E	_	.	.	.	.	.	.
.	.	8C	ko-	8r	.	c	.	.	.
.	.	[8C	-mo	8BB	A-	C)	.	.	.
=86	=86	=86	=86	=86	=86	=86	=86	=86	=86
*>Letter>C	*>Letter>C	*>Letter>C	*>Letter>C	*>Letter>C	*>Letter>C	*>Letter>C	*>Letter>C	*>Letter>C	*>Letter>C
*>Label>Chorus	*>Label>Chorus	*>Label>Chorus	*>Label>Chorus	*>Label>Chorus	*>Label>Chorus	*>Label>Chorus	*>Label>Chorus	*>Label>Chorus	*>Label>Chorus
1I	C:maj	2C]	_	8C	-ru-	.	176.618	newline	voice
.	.	.	.	8C	-ba,	a	.	.	.
.	.	.	.	8r	.	.	.	.	.
.	.	.	.	8BB	Ja-	.	.	.	.
.	.	2r	.	8C	-mai-	(A	.	.	.
.	.	.	.	8C	-ca,	a)	.	.	.
.	.	.	.	8r	.	.	.	.	.
.	.	.	.	8C	ooh	.	.	.	.
=87	=87	=87	=87	=87	=87	=87	=87	=87	=87
1I	C:maj	1r	.	8D	_	.	.	.	voice
.	.	.	.	8C	I	.	.	.	.
.	.	.	.	8C	want	.	.	.	.
.	.	.	.	8BB	to	.	.	.	.
.	.	.	.	8C	take	(A	.	.	.
.	.	.	.	8C	ya	a)	.	.	.
.	.	.	.	8r	.	.	.	.	.
.	.	.	.	8E	Ber-	.	.	.	.
=88	=88	=88	=88	=88	=88	=88	=88	=88	=88
1IV	F:maj	1r	.	8F	-mu-	.	.	.	voice
.	.	.	.	8F	-da,	.	.	.	.
.	.	.	.	8r	.	.	.	.	.
.	.	.	.	8E	Ba-	.	.	.	.
.	.	.	.	8F	-ha-	(B	.	.	.
.	.	.	.	8F	-ma,	b)	.	.	.
.	.	.	.	8r	.	.	.	.	.
.	.	.	.	8F	come	.	.	.	.
=89	=89	=89	=89	=89	=89	=89	=89	=89	=89
1IV	F:maj	1r	.	8G	_	.	.	.	voice
.	.	.	.	8F	on	.	.	.	.
.	.	.	.	8F	pret-	.	.	.	.
.	.	.	.	8E	-ty	.	.	.	.
.	.	.	.	8F	ma-	(B	.	.	.
.	.	.	.	8F	-ma	b)	.	.	.
.	.	.	.	8r	.	.	.	.	.
.	.	.	.	8BB	Key	.	.	.	.
=90	=90	=90	=90	=90	=90	=90	=90	=90	=90
1I	C:maj	2r	.	8C	Lar-	.	184.965	newline	voice
.	.	.	.	8C	-go,	c	.	.	.
.	.	.	.	8r	.	.	.	.	.
.	.	.	.	8BB	Mon-	.	.	.	.
.	.	4r	.	8C	-te-	(C	.	.	.
.	.	.	.	8C	-go,	c)	.	.	.
.	.	[4g	Ooh	8r	.	.	.	.	.
.	.	.	.	8C	ba-	.	.	.	.
=91	=91	=91	=91	=91	=91	=91	=91	=91	=91
1I	C:maj	8g]	_	8D	_	.	.	.	voice
.	.	8g	I	8C	-by	.	.	.	.
.	.	8f#	want	8C	why	.	.	.	.
.	.	8g	to	8BB	don't	.	.	.	.
.	.	8f#	take	8C	we	(C	.	.	.
.	.	8g	you	8C	go,	c)	.	.	.
.	.	8f#	down	4r	.	.	.	.	.
.	.	8g	to	.	.	.	.	.	.
=92	=92	=92	=92	=92	=92	=92	=92	=92	=92
1IV	F:maj	8f	Ko-	1r	.	(C	.	.	voice
.	.	8e	-ko	.	.	c	.	.	.
.	.	8c	_	.	.	.	.	.	.
.	.	[8c	mo	.	.	C)	.	.	.
.	.	8c]	_	.	.	.	.	.	.
.	.	8r	.	.	.	.	.	.	.
.	.	8r	.	.	.	.	.	.	.
.	.	8e	we'll	.	.	.	.	.	.
=93	=93	=93	=93	=93	=93	=93	=93	=93	=93
1iv	F:min	8f	get	1r	.	.	.	.	voice
.	.	4e	there	.	.	.	.	.	.
.	.	[8d	fast	.	.	.	.	.	.
.	.	8d]	_	.	.	.	.	.	.
.	.	8c	and	.	.	.	.	.	.
.	.	8d	then	.	.	.	.	.	.
.	.	8c	we'll	.	.	.	.	.	.
=94	=94	=94	=94	=94	=94	=94	=94	=94	=94
1I	C:maj	8d	take	1r	.	.	193.249	newline	voice
.	.	4e	it	.	.	.	.	.	.
.	.	[8e	slow	.	.	C	.	.	.
.	.	4e]	_	.	.	.	.	.	.
.	.	4r	.	.	.	.	.	.	.
=95	=95	=95	=95	=95	=95	=95	=95	=95	=95
1vi	A:min	4.a	That's	1r	.	.	.	.	voice
.	.	[8g	where	.	.	.	.	.	.
.	.	4g]	_	.	.	.	.	.	.
.	.	8d	we	.	.	.	.	.	.
.	.	8e	_	.	.	.	.	.	.
=96	=96	=96	=96	=96	=96	=96	=96	=96	=96
1ii	D:min	8d	want	1r	.	.	.	.	voice
.	.	8c	_	.	.	.	.	.	.
.	.	8c	to	.	.	.	.	.	.
.	.	8c	go,	.	.	C	.	.	.
.	.	8G	_	.	.	.	.	.	.
.	.	8A	_	.	.	.	.	.	.
.	.	4r	.	.	.	.	.	.	.
=97	=97	=97	=97	=97	=97	=97	=97	=97	=97
1V	G:maj	8r	.	2r	.	.	.	.	voice
.	.	8f	way	.	.	.	.	.	.
.	.	8f	down	.	.	.	.	.	.
.	.	8e	in	.	.	.	.	.	.
.	.	8c	Ko-	4r	.	(C	.	.	.
.	.	8G	-ko-	.	.	c	.	.	.
.	.	8A	-mo	8r	.	C)	.	.	.
.	.	[8c	_	8BB	A-	.	.	.	.
=98	=98	=98	=98	=98	=98	=98	=98	=98	=98
*>Letter>C	*>Letter>C	*>Letter>C	*>Letter>C	*>Letter>C	*>Letter>C	*>Letter>C	*>Letter>C	*>Letter>C	*>Letter>C
*>Label>Chorus	*>Label>Chorus	*>Label>Chorus	*>Label>Chorus	*>Label>Chorus	*>Label>Chorus	*>Label>Chorus	*>Label>Chorus	*>Label>Chorus	*>Label>Chorus
1I	C:maj	2c]	_	8C	-ru-	.	201.53	newline	voice
.	.	.	.	8C	-ba,	a	.	.	.
.	.	.	.	8r	.	.	.	.	.
.	.	.	.	8BB	Ja-	.	.	.	.
.	.	2r	.	8C	-mai-	(A	.	.	.
.	.	.	.	8C	-ca,	a)	.	.	.
.	.	.	.	8r	.	.	.	.	.
.	.	.	.	8C	ooh	.	.	.	.
=99	=99	=99	=99	=99	=99	=99	=99	=99	=99
1I	C:maj	1r	.	8D	_	.	.	.	voice
.	.	.	.	8C	I	.	.	.	.
.	.	.	.	8C	want	.	.	.	.
.	.	.	.	8BB	to	.	.	.	.
.	.	.	.	8C	take	(A	.	.	.
.	.	.	.	8C	ya	a)	.	.	.
.	.	.	.	8r	.	.	.	.	.
.	.	.	.	8E	Ber-	.	.	.	.
=100	=100	=100	=100	=100	=100	=100	=100	=100	=100
1IV	F:maj	1r	.	8F	-mu-	.	.	.	voice
.	.	.	.	8F	-da,	a	.	.	.
.	.	.	.	8r	.	.	.	.	.
.	.	.	.	8E	Ba-	.	.	.	.
.	.	.	.	8F	-ha-	(B	.	.	.
.	.	.	.	8F	-ma,	b)	.	.	.
.	.	.	.	8r	.	.	.	.	.
.	.	.	.	8F	come	.	.	.	.
=101	=101	=101	=101	=101	=101	=101	=101	=101	=101
1IV	F:maj	1r	.	8G	_	.	.	.	voice
.	.	.	.	8F	on	.	.	.	.
.	.	.	.	8F	pret-	.	.	.	.
.	.	.	.	8E	-ty	.	.	.	.
.	.	.	.	8F	ma-	(B	.	.	.
.	.	.	.	8F	-ma	b)	.	.	.
.	.	.	.	8r	.	.	.	.	.
.	.	.	.	8BB	Key	.	.	.	.
=102	=102	=102	=102	=102	=102	=102	=102	=102	=102
1I	C:maj	1r	.	8C	Lar-	.	205.764	newline	voice
.	.	.	.	8C	-go,	c	.	.	.
.	.	.	.	8r	.	.	.	.	.
.	.	.	.	8BB	Mon-	.	.	.	.
.	.	.	.	8C	-te-	(C	.	.	.
.	.	.	.	8C	-go,	c)	.	.	.
.	.	.	.	8r	.	.	.	.	.
.	.	.	.	8C	ba-	.	.	.	.
=103	=103	=103	=103	=103	=103	=103	=103	=103	=103
1I	C:maj	1r	.	8D	_	.	.	.	voice
.	.	.	.	8C	-by	.	.	.	.
.	.	.	.	8C	why	.	.	.	.
.	.	.	.	8BB	don't	.	.	.	.
.	.	.	.	8C	we	(C	.	.	.
.	.	.	.	8C	go,	c)	.	.	.
.	.	.	.	4r	.	.	.	.	.
=104	=104	=104	=104	=104	=104	=104	=104	=104	=104
1IV	F:maj	1r	.	1r	.	.	.	.	voice
=105	=105	=105	=105	=105	=105	=105	=105	=105	=105
1iv	F:min	1r	.	1r	.	.	.	.	voice
1r;	N	r;	.	r;	.	.	214.356	.	r
1r;	N	r;	.	r;	.	.	217.615	.	r
*-	*-	*-	*-	*-	*-	*-	*-	*-	*-
!!!BillboardChartDate: 1988/09/17
!!!BillboardPeak: 1
!!!BillboardWeeksOnChart: 28
!!!COC: The Beach Boys
!!!EMD: A lot of stuff marked "N" (no-chord) should have (implied) chords in transcription.
!!!ENC: Nathaniel Condit-Schultz
!!!EST: Awating manual error checking and editing.
!!!OTL: Kokomo (from the film Cocktail)
!!!RDF**harte: Chris Harte's syntax, used by MIREX
!!!RDF**harmony: **recip + pitch class of root + harmonic quality
!!!RDF**leadinstrument: original McGill primary instrumentation annotation
!!!RDF**phrase: newline = linebreak in original McGill transcription
!!!RDF**timestamp: McGill audio timestamp in seconds
!!!RDT: 2017/01/12/
!!!SampleActualRank: 58
!!!SampleID#: 0974
!!!SampleTargetRank: 57
!!!MBID: 8ac90f40-98e1-450d-8456-77d46ffd47fe
